images/logos/asi.svg

<svg xmlns="http://www.w3.org/2000/svg" width="122" height="50" viewBox="0 0 122 50">
  <g fill="none" fill-rule="evenodd">
    <path fill="#FFFFFF" d="M62.6508454,21.6703333 C64.9305556,21.6703333 66.4649758,20.1633333 66.4649758,17.9963333 C66.4649758,15.8513333 64.9305556,14.3333333 62.6398853,14.3333333 L59.9217693,14.3333333 L59.9217693,21.6703333 L62.6508454,21.6703333 Z M62.6398853,20.5373333 L61.2041063,20.5373333 L61.2041063,15.4663333 L62.6508454,15.4663333 C64.2729469,15.4663333 65.1497585,16.5883333 65.1497585,17.9963333 C65.1497585,19.3933333 64.2291063,20.5373333 62.6398853,20.5373333 L62.6398853,20.5373333 Z M76.8960447,21.6703333 L74.0244867,14.3333333 L72.4243056,14.3333333 L69.5527476,21.6703333 L71.0104469,21.6703333 L71.547494,20.2513333 L74.9012983,20.2513333 L75.4383454,21.6703333 L76.8960447,21.6703333 Z M74.5396135,19.1183333 L71.9091787,19.1183333 L73.2243961,15.6203333 L74.5396135,19.1183333 Z M82.9868961,21.6703333 L82.9868961,15.4663333 L85.2008454,15.4663333 L85.2008454,14.3333333 L79.4906099,14.3333333 L79.4906099,15.4663333 L81.7045592,15.4663333 L81.7045592,21.6703333 L82.9868961,21.6703333 Z M95.1496679,21.6703333 L92.2781099,14.3333333 L90.6779287,14.3333333 L87.8063708,21.6703333 L89.26407,21.6703333 L89.8011171,20.2513333 L93.1549215,20.2513333 L93.6919686,21.6703333 L95.1496679,21.6703333 Z M92.7932367,19.1183333 L90.1628019,19.1183333 L91.4780193,15.6203333 L92.7932367,19.1183333 Z M62.4316425,35.8023333 C64.3935085,35.8023333 65.2593599,34.7463333 65.2593599,33.5253333 C65.2593599,30.7973333 61.0068237,31.6443333 61.0068237,30.2693333 C61.0068237,29.7303333 61.48907,29.3563333 62.2343599,29.3563333 C63.00157,29.3563333 63.7797403,29.6203333 64.360628,30.2033333 L65.0839976,29.2463333 C64.4154287,28.5863333 63.4838164,28.2123333 62.3549215,28.2123333 C60.7437802,28.2123333 59.6916063,29.1473333 59.6916063,30.3683333 C59.6916063,33.0633333 63.9441425,32.1063333 63.9441425,33.6463333 C63.9441425,34.1413333 63.5386171,34.6583333 62.4864432,34.6583333 C61.4671498,34.6583333 60.6670592,34.1743333 60.1738527,33.6353333 L59.4504831,34.6363333 C60.1080918,35.3183333 61.0835447,35.8023333 62.4316425,35.8023333 L62.4316425,35.8023333 Z M72.9394324,35.8023333 C74.4080918,35.8023333 75.3177838,35.0213333 75.8767512,34.1413333 L74.7807367,33.5913333 C74.4300121,34.1963333 73.7176027,34.6583333 72.9394324,34.6583333 C71.4926932,34.6583333 70.418599,33.5363333 70.418599,32.0073333 C70.418599,30.4563333 71.4926932,29.3563333 72.9394324,29.3563333 C73.7176027,29.3563333 74.4300121,29.8073333 74.7807367,30.4233333 L75.8657911,29.8513333 C75.328744,28.9713333 74.4080918,28.2123333 72.9394324,28.2123333 C70.7802838,28.2123333 69.1033816,29.7413333 69.1033816,32.0073333 C69.1033816,34.2623333 70.7802838,35.8023333 72.9394324,35.8023333 L72.9394324,35.8023333 Z M81.1675121,35.6703333 L81.1675121,28.3333333 L79.8851751,28.3333333 L79.8851751,35.6703333 L81.1675121,35.6703333 Z M90.7217693,35.6703333 L90.7217693,34.5373333 L86.99532,34.5373333 L86.99532,32.4913333 L90.6450483,32.4913333 L90.6450483,31.3583333 L86.99532,31.3583333 L86.99532,29.4663333 L90.7217693,29.4663333 L90.7217693,28.3333333 L85.7129831,28.3333333 L85.7129831,35.6703333 L90.7217693,35.6703333 Z M101.361081,35.6703333 L101.361081,28.3333333 L100.078744,28.3333333 L100.078744,33.4153333 L96.3413345,28.3333333 L95.0261171,28.3333333 L95.0261171,35.6703333 L96.3084541,35.6703333 L96.3084541,30.4233333 L100.122585,35.6703333 L101.361081,35.6703333 Z M109.424758,35.8023333 C110.893418,35.8023333 111.80311,35.0213333 112.362077,34.1413333 L111.266063,33.5913333 C110.915338,34.1963333 110.202929,34.6583333 109.424758,34.6583333 C107.978019,34.6583333 106.903925,33.5363333 106.903925,32.0073333 C106.903925,30.4563333 107.978019,29.3563333 109.424758,29.3563333 C110.202929,29.3563333 110.915338,29.8073333 111.266063,30.4233333 L112.351117,29.8513333 C111.81407,28.9713333 110.893418,28.2123333 109.424758,28.2123333 C107.26561,28.2123333 105.588708,29.7413333 105.588708,32.0073333 C105.588708,34.2623333 107.26561,35.8023333 109.424758,35.8023333 L109.424758,35.8023333 Z M121.379287,35.6703333 L121.379287,34.5373333 L117.652838,34.5373333 L117.652838,32.4913333 L121.302566,32.4913333 L121.302566,31.3583333 L117.652838,31.3583333 L117.652838,29.4663333 L121.379287,29.4663333 L121.379287,28.3333333 L116.370501,28.3333333 L116.370501,35.6703333 L121.379287,35.6703333 Z"/>
    <path fill="#00AEF9" d="M25.2415454,50 C38.9986921,50 50.1508001,38.807 50.1508001,25 C50.1508001,11.193 38.9986921,0 25.2415454,0 C11.4843986,0 0.331959541,11.193 0.331959541,25 C0.331959541,38.807 11.4843986,50 25.2415454,50"/>
    <path fill="#22333E" d="M40.2665429,14.4327333 C40.2665429,13.6907333 39.6710417,13.1110667 38.9380405,13.1110667 C38.2279559,13.1110667 37.609538,13.6907333 37.609538,14.4327333 C37.609538,15.1747333 38.2279559,15.7777333 38.9380405,15.7777333 C39.6710417,15.7777333 40.2665429,15.1747333 40.2665429,14.4327333"/>
    <path fill="#FFFFFF" d="M17.7326842,27.2697667 L11.9855827,27.2697667 L14.8491697,19.9327667 L17.7326842,27.2697667 Z M15.9654438,17.9694333 L13.7534873,17.9694333 L8.11166969,32.0097667 L10.1974185,32.0097667 L11.4259511,28.8957667 L18.271724,28.8957667 L19.5002566,32.0097667 L21.5863376,32.0097667 L15.9780646,18.0007667 L15.9654438,17.9694333 Z M29.1992542,23.8041333 C27.4273641,23.3211333 25.8972615,22.9041333 25.8972615,21.5724667 C25.8972615,20.2974667 27.0494052,19.4071333 28.6997373,19.4071333 C29.8442421,19.4071333 31.4643508,19.6941333 32.6812591,21.0624667 L32.7204499,21.1061333 L33.8267603,19.7518 L33.7962047,19.7198 C32.5709934,18.4244667 30.859218,17.7398 28.8458726,17.7398 C26.0417361,17.7398 24.0064704,19.3954667 24.0064704,21.6771333 C24.0064704,24.4038 26.4758243,25.0708 28.6545682,25.6598 C30.4938798,26.1564667 32.231561,26.6261333 32.231561,28.2394667 C32.231561,28.6361333 32.0764583,30.6134667 29.0122675,30.6134667 C26.6565006,30.6134667 25.2104257,29.2228 24.6979559,28.6248 L24.658433,28.5788 L23.5541153,29.9971333 L23.5816818,30.0281333 C24.854055,31.4678 26.7601238,32.2604667 28.9498279,32.2604667 C32.7632941,32.2604667 34.1223521,30.1184667 34.1223521,28.1141333 C34.1223521,25.1458 31.5068629,24.4331333 29.1992542,23.8041333 Z M38.0237319,32.0096667 L39.8520833,32.0096667 L39.8520833,17.9693333 L38.0237319,17.9693333 L38.0237319,32.0096667 Z"/>
  </g>
</svg>

<?xml version="1.0" encoding="utf-8"?>
<!-- Generator: Adobe Illustrator 16.0.0, SVG Export Plug-In . SVG Version: 6.00 Build 0)  -->
<!DOCTYPE svg PUBLIC "-//W3C//DTD SVG 1.1//EN" "http://www.w3.org/Graphics/SVG/1.1/DTD/svg11.dtd">
<svg version="1.1" id="Layer_1" xmlns="http://www.w3.org/2000/svg" xmlns:xlink="http://www.w3.org/1999/xlink" x="0px" y="0px"
	 width="122px" height="50px" viewBox="0 0 122 50" enable-background="new 0 0 122 50" xml:space="preserve">
<g>
	<path d="M62.65,21.67c2.28,0,3.814-1.507,3.814-3.674c0-2.145-1.534-3.663-3.825-3.663h-2.718v7.337H62.65z M62.64,20.537h-1.436
		v-5.071h1.446c1.623,0,2.5,1.122,2.5,2.53C65.15,19.394,64.229,20.537,62.64,20.537L62.64,20.537z M76.896,21.67l-2.872-7.337
		h-1.601l-2.871,7.337h1.457l0.537-1.419h3.354l0.537,1.419H76.896z M74.539,19.118h-2.63l1.315-3.498L74.539,19.118z M82.986,21.67
		v-6.204h2.215v-1.133H79.49v1.133h2.215v6.204H82.986z M95.149,21.67l-2.871-7.337h-1.601l-2.871,7.337h1.457l0.537-1.419h3.354
		l0.537,1.419H95.149z M92.793,19.118h-2.631l1.316-3.498L92.793,19.118z M62.432,35.803c1.962,0,2.828-1.057,2.828-2.277
		c0-2.729-4.253-1.881-4.253-3.256c0-0.539,0.482-0.913,1.228-0.913c0.768,0,1.545,0.264,2.127,0.847l0.723-0.957
		c-0.668-0.66-1.6-1.033-2.729-1.033c-1.612,0-2.664,0.935-2.664,2.155c0,2.695,4.253,1.738,4.253,3.278
		c0,0.495-0.405,1.012-1.458,1.012c-1.019,0-1.819-0.484-2.312-1.023l-0.723,1.002C60.108,35.318,61.083,35.803,62.432,35.803
		L62.432,35.803z M72.939,35.803c1.469,0,2.379-0.781,2.938-1.661l-1.096-0.55c-0.352,0.604-1.063,1.066-1.842,1.066
		c-1.447,0-2.521-1.122-2.521-2.65c0-1.551,1.074-2.651,2.521-2.651c0.778,0,1.49,0.45,1.842,1.067l1.084-0.572
		c-0.537-0.881-1.457-1.639-2.926-1.639c-2.159,0-3.836,1.528-3.836,3.795C69.104,34.262,70.78,35.803,72.939,35.803L72.939,35.803z
		 M81.168,35.67v-7.336h-1.283v7.336H81.168z M90.722,35.67v-1.133h-3.727v-2.046h3.649v-1.133h-3.649v-1.892h3.727v-1.133h-5.009
		v7.336H90.722z M101.361,35.67v-7.336h-1.283v5.082l-3.736-5.082h-1.315v7.336h1.282v-5.246l3.814,5.246H101.361z M109.425,35.803
		c1.469,0,2.378-0.781,2.938-1.661l-1.097-0.55c-0.35,0.604-1.062,1.066-1.841,1.066c-1.446,0-2.521-1.122-2.521-2.65
		c0-1.551,1.074-2.651,2.521-2.651c0.778,0,1.491,0.45,1.841,1.067l1.086-0.572c-0.537-0.881-1.458-1.639-2.927-1.639
		c-2.159,0-3.836,1.528-3.836,3.795C105.589,34.262,107.266,35.803,109.425,35.803L109.425,35.803z M121.379,35.67v-1.133h-3.727
		v-2.046h3.65v-1.133h-3.65v-1.892h3.727v-1.133h-5.008v7.336H121.379z"/>
	<path fill="#00AEF9" d="M25.242,50c13.757,0,24.909-11.193,24.909-25c0-13.807-11.152-25-24.909-25C11.484,0,0.332,11.193,0.332,25
		C0.332,38.807,11.484,50,25.242,50"/>
	<path fill="#22333E" d="M40.267,14.433c0-0.742-0.596-1.321-1.329-1.321c-0.71,0-1.329,0.58-1.329,1.321
		c0,0.742,0.619,1.345,1.329,1.345C39.671,15.778,40.267,15.175,40.267,14.433"/>
	<path fill="#FFFFFF" d="M17.733,27.27h-5.748l2.864-7.337L17.733,27.27z M15.965,17.969h-2.212L8.112,32.01h2.085l1.229-3.114
		h6.846L19.5,32.01h2.086l-5.608-14.009L15.965,17.969z M29.199,23.804c-1.772-0.483-3.302-0.9-3.302-2.232
		c0-1.275,1.152-2.165,2.802-2.165c1.145,0,2.765,0.287,3.981,1.655l0.04,0.043l1.106-1.354l-0.03-0.032
		c-1.226-1.295-2.937-1.98-4.951-1.98c-2.804,0-4.839,1.656-4.839,3.938c0,2.727,2.469,3.394,4.648,3.983
		c1.839,0.496,3.577,0.966,3.577,2.579c0,0.397-0.155,2.374-3.219,2.374c-2.356,0-3.802-1.391-4.314-1.988l-0.04-0.047l-1.104,1.419
		l0.027,0.031c1.272,1.439,3.179,2.232,5.368,2.232c3.813,0,5.173-2.142,5.173-4.146C34.123,25.146,31.507,24.433,29.199,23.804z
		 M38.024,32.01h1.828V17.969h-1.828V32.01z"/>
</g>
</svg>
